apps/ui-icons/svgs/qr_code.svg

<svg viewBox="0 0 24 24" width="24" height="24"  fill="none" xmlns="http://www.w3.org/2000/svg">
<path fill-rule="evenodd" clip-rule="evenodd" d="M5 3C3.89543 3 3 3.89543 3 5V9C3 10.1046 3.89543 11 5 11H9C10.1046 11 11 10.1046 11 9V5C11 3.89543 10.1046 3 9 3H5ZM9 5H5V9H9V5Z" fill="#171D26"/>
<path fill-rule="evenodd" clip-rule="evenodd" d="M5 13C3.89543 13 3 13.8954 3 15V19C3 20.1046 3.89543 21 5 21H9C10.1046 21 11 20.1046 11 19V15C11 13.8954 10.1046 13 9 13H5ZM9 15H5V19H9V15Z" fill="#171D26"/>
<path fill-rule="evenodd" clip-rule="evenodd" d="M13 5C13 3.89543 13.8954 3 15 3H19C20.1046 3 21 3.89543 21 5V9C21 10.1046 20.1046 11 19 11H15C13.8954 11 13 10.1046 13 9V5ZM15 5H19V9H15V5Z" fill="#171D26"/>
<path d="M21 14C21 14.5523 20.5523 15 20 15C19.4477 15 19 14.5523 19 14C19 13.4477 19.4477 13 20 13C20.5523 13 21 13.4477 21 14Z" fill="#171D26"/>
<path d="M14 21C14.5523 21 15 20.5523 15 20C15 19.4477 14.5523 19 14 19C13.4477 19 13 19.4477 13 20C13 20.5523 13.4477 21 14 21Z" fill="#171D26"/>
<path d="M13 15C13 13.8954 13.8954 13 15 13H16C16.5523 13 17 13.4477 17 14C17 14.5523 16.5523 15 16 15H15V16C15 16.5523 14.5523 17 14 17C13.4477 17 13 16.5523 13 16V15Z" fill="#171D26"/>
<path d="M19 21C20.1046 21 21 20.1046 21 19V18C21 17.4477 20.5523 17 20 17C19.4477 17 19 17.4477 19 18V19H18C17.4477 19 17 19.4477 17 20C17 20.5523 17.4477 21 18 21H19Z" fill="#171D26"/>
</svg>

<svg xmlns="http://www.w3.org/2000/svg" width="24" height="24" fill="none" viewBox="0 0 24 24">
  <path fill="#171D26" fill-rule="evenodd" d="M5 3a2 2 0 0 0-2 2v4a2 2 0 0 0 2 2h4a2 2 0 0 0 2-2V5a2 2 0 0 0-2-2H5Zm4 2H5v4h4V5Zm-4 8a2 2 0 0 0-2 2v4a2 2 0 0 0 2 2h4a2 2 0 0 0 2-2v-4a2 2 0 0 0-2-2H5Zm4 2H5v4h4v-4Zm4-10a2 2 0 0 1 2-2h4a2 2 0 0 1 2 2v4a2 2 0 0 1-2 2h-4a2 2 0 0 1-2-2V5Zm2 0h4v4h-4V5Z" clip-rule="evenodd"/>
  <path fill="#171D26" d="M21 14a1 1 0 1 1-2 0 1 1 0 0 1 2 0Zm-7 7a1 1 0 1 0 0-2 1 1 0 0 0 0 2Zm-1-6a2 2 0 0 1 2-2h1a1 1 0 1 1 0 2h-1v1a1 1 0 1 1-2 0v-1Zm6 6a2 2 0 0 0 2-2v-1a1 1 0 1 0-2 0v1h-1a1 1 0 1 0 0 2h1Z"/>
</svg>
